assets/icons/hair.svg

<svg width="30" height="30" viewBox="0 0 30 30" fill="none" xmlns="http://www.w3.org/2000/svg">
<path fill-rule="evenodd" clip-rule="evenodd" d="M18.2895 4.67896L18.7256 5.10039H19.8041C20.3078 5.10039 20.692 5.23241 21.0163 5.46824C21.3566 5.71576 21.7134 6.13925 22.0376 6.84181C22.7027 8.28298 23.1053 10.6227 23.1053 14.0031C23.1053 20.7067 24.9511 23.9 25.9714 25.1409C25.8157 25.2492 25.5984 25.3826 25.3079 25.5223C24.5135 25.9045 23.1203 26.358 20.8617 26.4307C17.7905 26.5296 15.962 26.5033 13.7342 26.4713H13.7341C12.4326 26.4526 10.9947 26.4319 9.09313 26.4331C6.75892 26.4346 5.39799 25.9788 4.66077 25.6004C4.35355 25.4427 4.14195 25.292 4.00415 25.1789C5.01741 23.966 6.90033 20.7731 6.90033 14.0031C6.90033 5.95569 12.7161 3.5 15.0028 3.5C16.0681 3.5 16.6473 3.61495 17.0453 3.77517C17.4298 3.92997 17.7679 4.17482 18.2895 4.67896ZM27.3601 25.9407C27.3875 25.9148 27.4046 25.8988 27.4124 25.8942C27.6396 25.7614 27.7805 25.5197 27.7997 25.2572C27.8173 24.9947 27.7005 24.7371 27.494 24.5722C27.4653 24.5499 24.6053 22.1877 24.6053 14.0031C24.6053 7.1005 22.9905 3.60039 19.8041 3.60039H19.332C18.1828 2.48973 17.3202 2 15.0028 2C11.9957 2 5.40033 5.02321 5.40033 14.0031C5.40033 22.1877 2.54036 24.5499 2.51958 24.5658C2.30675 24.7259 2.18672 24.9803 2.19947 25.2461C2.21387 25.5133 2.35791 25.7534 2.5868 25.891C2.59493 25.8959 2.61203 25.9146 2.63959 25.9449C2.93719 26.2712 4.45512 27.936 9.09406 27.9331C10.9472 27.9319 12.3713 27.9522 13.6713 27.9708H13.6713C15.927 28.0029 17.809 28.0298 20.9099 27.93C25.4026 27.7853 27.0487 26.2341 27.3601 25.9407ZM15.9461 17.1907C16.0002 16.6802 16.6452 16.4444 17.0139 16.8379L18.4074 18.3265L18.4955 18.4124C18.7703 18.6598 19.1297 18.7922 19.4994 18.782L21.5361 18.7267L21.624 18.7299C22.1343 18.7834 22.3703 19.429 21.9762 19.7981L20.4876 21.1915L20.4017 21.2796C20.1551 21.5518 20.0217 21.9113 20.0321 22.2819L20.0878 24.3192L20.0845 24.4072C20.0304 24.9177 19.3847 25.1538 19.0163 24.7593L17.6241 23.2718L17.5358 23.1852C17.262 22.9386 16.9034 22.8055 16.5335 22.8157L14.4952 22.8709L14.4072 22.8677C13.8967 22.8136 13.6609 22.1686 14.0551 21.7995L15.5433 20.407L15.6299 20.3187C15.8758 20.0452 16.0098 19.6869 15.9994 19.3164L15.9428 17.2786L15.9461 17.1907ZM17.5033 19.1719L17.2257 18.8757L17.2374 19.2819L17.2372 19.4348L17.2271 19.598C17.1673 20.2523 16.8692 20.8619 16.3894 21.3108L16.0932 21.5885L16.499 21.5777L16.6519 21.5779L16.8151 21.588C17.4697 21.6473 18.0797 21.9453 18.5286 22.4254L18.8053 22.7213L18.7945 22.3154L18.7947 22.1625L18.8042 21.9996C18.8636 21.3451 19.1618 20.7355 19.6418 20.2868L19.9378 20.0085L19.5322 20.0199L19.3794 20.0197C19.0262 20.0091 18.6786 19.9288 18.3566 19.7833C18.0346 19.6378 17.7446 19.43 17.5033 19.1719Z" fill="#485FC7"/>
</svg>

<svg width="30" height="30" fill="none" xmlns="http://www.w3.org/2000/svg"><path fill-rule="evenodd" clip-rule="evenodd" d="m18.29 4.679.436.421h1.078c.504 0 .888.132 1.212.368.34.248.697.671 1.022 1.374.665 1.441 1.067 3.78 1.067 7.161 0 6.704 1.846 9.897 2.866 11.138a4.812 4.812 0 0 1-.663.381c-.794.383-2.188.836-4.446.909-3.071.099-4.9.072-7.128.04-1.301-.018-2.74-.04-4.64-.038-2.335.002-3.696-.454-4.433-.833a3.673 3.673 0 0 1-.657-.421C5.017 23.966 6.9 20.773 6.9 14.003 6.9 5.956 12.716 3.5 15.003 3.5c1.065 0 1.644.115 2.042.275.385.155.723.4 1.244.904Zm9.07 21.262a.51.51 0 0 1 .052-.047.802.802 0 0 0 .388-.637.813.813 0 0 0-.306-.685c-.029-.022-2.889-2.384-2.889-10.569 0-6.902-1.614-10.403-4.8-10.403h-.473C18.182 2.49 17.32 2 15.002 2 11.997 2 5.4 5.023 5.4 14.003c0 8.185-2.86 10.547-2.88 10.563a.8.8 0 0 0 .067 1.325.44.44 0 0 1 .053.054c.297.326 1.815 1.991 6.454 1.988 1.853-.001 3.277.02 4.577.038 2.256.032 4.138.059 7.239-.041 4.493-.145 6.139-1.696 6.45-1.99Zm-11.414-8.75a.62.62 0 0 1 1.068-.353l1.393 1.488.088.086c.275.248.635.38 1.004.37l2.037-.055.088.003c.51.053.746.699.352 1.068l-1.488 1.394-.086.088c-.247.272-.38.631-.37 1.002l.056 2.037-.004.088a.62.62 0 0 1-1.068.352l-1.392-1.487-.088-.087a1.439 1.439 0 0 0-1.003-.37l-2.038.056-.088-.003a.62.62 0 0 1-.352-1.069l1.488-1.392.087-.088a1.44 1.44 0 0 0 .37-1.003l-.057-2.037.003-.088Zm1.557 1.98-.277-.295.011.406v.153l-.01.163a2.68 2.68 0 0 1-.838 1.713l-.296.277.406-.01h.153l.163.01c.655.06 1.265.357 1.714.837l.276.296-.01-.406v-.152l.01-.163c.059-.655.357-1.265.837-1.713l.296-.278-.406.01h-.153a2.679 2.679 0 0 1-1.876-.847Z" fill="#485FC7"/></svg>
